X:41
T:Morgiana. JGi.041
M:6/8
L:1/8
Q:3/8=90
S:Joshua Gibbons MS,1823,Tealby,Lincs.
N:Missing bar in third section
N:Bar 5 possibly repeated
R:jig
O:Tealby,Lincolnshire
Z:VMP/R.Greig, 2009
K:F
c|cAc a2g|fedc2c|cAc fga|bag gec|
cAc{fg}a2g|fed c2c|cAc fga|bge f2:|
|:g|gbg fed|cdcb2c|a2cg2c|cdcg3|
gag fed|cdcb2c|a2cg2c|gfe dcB:|
|:AFGA2c|AFGA2c|B2dA2c|G2G GcB|
AFGA2c|d2fe2g|fff f2:|

